img/logo.svg

<svg width="206" height="32" viewBox="0 0 206 32" fill="none" xmlns="http://www.w3.org/2000/svg">
<path d="M35.0681 0.445062V31.6885H27.5252V12.9513L20.5998 31.6885H14.5125L7.54295 12.9068V31.6885H0V0.445062H8.91039L17.6002 22.0751L26.2018 0.445062H35.0681Z" fill="white"/>
<path d="M65.7238 32C62.8124 32 60.1364 31.3176 57.6956 29.9527C55.2842 28.5879 53.358 26.6889 51.9171 24.2559C50.5055 21.7932 49.7998 19.0338 49.7998 15.9777C49.7998 12.9216 50.5055 10.1771 51.9171 7.74409C53.358 5.31108 55.2842 3.41215 57.6956 2.04729C60.1364 0.682429 62.8124 0 65.7238 0C68.6351 0 71.2964 0.682429 73.7078 2.04729C76.1486 3.41215 78.0601 5.31108 79.4422 7.74409C80.8538 10.1771 81.5596 12.9216 81.5596 15.9777C81.5596 19.0338 80.8538 21.7932 79.4422 24.2559C78.0307 26.6889 76.1192 28.5879 73.7078 29.9527C71.2964 31.3176 68.6351 32 65.7238 32ZM65.7238 25.057C68.194 25.057 70.1643 24.2262 71.6346 22.5647C73.1344 20.9031 73.8843 18.7075 73.8843 15.9777C73.8843 13.2184 73.1344 11.0227 71.6346 9.39082C70.1643 7.72925 68.194 6.89847 65.7238 6.89847C63.2241 6.89847 61.2245 7.71442 59.7247 9.34631C58.2543 10.9782 57.5191 13.1887 57.5191 15.9777C57.5191 18.7371 58.2543 20.9476 59.7247 22.6092C61.2245 24.2411 63.2241 25.057 65.7238 25.057Z" fill="white"/>
<path d="M118.619 0.445062V6.54242H110.414V31.6885H102.871V6.54242H94.6663V0.445062H118.619Z" fill="white"/>
<path d="M147.636 32C144.724 32 142.048 31.3176 139.607 29.9527C137.196 28.5879 135.27 26.6889 133.829 24.2559C132.417 21.7932 131.712 19.0338 131.712 15.9777C131.712 12.9216 132.417 10.1771 133.829 7.74409C135.27 5.31108 137.196 3.41215 139.607 2.04729C142.048 0.682429 144.724 0 147.636 0C150.547 0 153.208 0.682429 155.62 2.04729C158.06 3.41215 159.972 5.31108 161.354 7.74409C162.766 10.1771 163.471 12.9216 163.471 15.9777C163.471 19.0338 162.766 21.7932 161.354 24.2559C159.942 26.6889 158.031 28.5879 155.62 29.9527C153.208 31.3176 150.547 32 147.636 32ZM147.636 25.057C150.106 25.057 152.076 24.2262 153.546 22.5647C155.046 20.9031 155.796 18.7075 155.796 15.9777C155.796 13.2184 155.046 11.0227 153.546 9.39082C152.076 7.72925 150.106 6.89847 147.636 6.89847C145.136 6.89847 143.136 7.71442 141.636 9.34631C140.166 10.9782 139.431 13.1887 139.431 15.9777C139.431 18.7371 140.166 20.9476 141.636 22.6092C143.136 24.2411 145.136 25.057 147.636 25.057Z" fill="white"/>
<path d="M197.222 31.6885L190.914 22.1196L185.356 31.6885H176.799L186.724 15.7997L176.578 0.445062H185.356L191.576 9.88039L197.046 0.445062H205.603L195.766 16.2003L206 31.6885H197.222Z" fill="white"/>
</svg>

<svg width="206" height="32" fill="none" xmlns="http://www.w3.org/2000/svg"><path d="M35.068.445V31.69h-7.543V12.95L20.6 31.69h-6.088l-6.97-18.782v18.782H.001V.445h8.91l8.69 21.63L26.202.445h8.866ZM65.724 32c-2.912 0-5.588-.682-8.028-2.047-2.412-1.365-4.338-3.264-5.779-5.697-1.412-2.463-2.117-5.222-2.117-8.278s.706-5.8 2.117-8.234c1.441-2.433 3.367-4.332 5.779-5.697C60.136.682 62.812 0 65.724 0c2.911 0 5.572.682 7.984 2.047a14.763 14.763 0 0 1 5.734 5.697c1.412 2.433 2.118 5.178 2.118 8.234s-.706 5.815-2.118 8.278c-1.411 2.433-3.323 4.332-5.734 5.697C71.296 31.318 68.635 32 65.724 32Zm0-6.943c2.47 0 4.44-.83 5.91-2.492 1.5-1.662 2.25-3.858 2.25-6.587 0-2.76-.75-4.955-2.25-6.587-1.47-1.662-3.44-2.493-5.91-2.493-2.5 0-4.5.816-6 2.448-1.47 1.632-2.205 3.843-2.205 6.632 0 2.76.735 4.97 2.206 6.631 1.5 1.632 3.5 2.448 5.999 2.448ZM118.619.445v6.097h-8.205V31.69h-7.543V6.542h-8.205V.445h23.953ZM147.636 32c-2.912 0-5.588-.682-8.029-2.047-2.411-1.365-4.337-3.264-5.778-5.697-1.412-2.463-2.117-5.222-2.117-8.278s.705-5.8 2.117-8.234c1.441-2.433 3.367-4.332 5.778-5.697C142.048.682 144.724 0 147.636 0c2.911 0 5.572.682 7.984 2.047a14.767 14.767 0 0 1 5.734 5.697c1.412 2.433 2.117 5.178 2.117 8.234s-.705 5.815-2.117 8.278c-1.412 2.433-3.323 4.332-5.734 5.697-2.412 1.365-5.073 2.047-7.984 2.047Zm0-6.943c2.47 0 4.44-.83 5.91-2.492 1.5-1.662 2.25-3.858 2.25-6.587 0-2.76-.75-4.955-2.25-6.587-1.47-1.662-3.44-2.493-5.91-2.493-2.5 0-4.5.816-6 2.448-1.47 1.632-2.205 3.843-2.205 6.632 0 2.76.735 4.97 2.205 6.631 1.5 1.632 3.5 2.448 6 2.448ZM197.222 31.689l-6.308-9.57-5.558 9.57h-8.557l9.925-15.89L176.578.446h8.778l6.22 9.435 5.47-9.435h8.557L195.766 16.2 206 31.69h-8.778Z" fill="#fff"/></svg>
